images/client6.svg

<svg width="94" height="45" viewBox="0 0 94 45" fill="none" xmlns="http://www.w3.org/2000/svg">
<path d="M47.5293 21.4432C47.0853 20.8523 46.8729 20.1541 46.9233 19.4512V16.5631C46.9233 15.6778 47.1242 15.005 47.5259 14.5447C47.9277 14.0844 48.6177 13.8552 49.596 13.8572C50.5153 13.8572 51.1679 14.0531 51.5537 14.4448C51.9746 14.9446 52.1794 15.5558 52.1325 16.1724V16.851H50.488V16.1635C50.4939 15.9385 50.4779 15.7135 50.4404 15.4907C50.4167 15.3384 50.3339 15.1976 50.2055 15.0912C50.0366 14.9765 49.8239 14.9209 49.6096 14.9354C49.3843 14.9209 49.1609 14.9796 48.9832 15.1C48.8399 15.2179 48.7444 15.3724 48.7108 15.5407C48.6636 15.7764 48.642 16.0154 48.6461 16.2546V19.7597C48.6202 20.0978 48.6927 20.4362 48.8572 20.7439C48.939 20.848 49.0526 20.9306 49.1854 20.9824C49.3182 21.0343 49.465 21.0534 49.6096 21.0377C49.8203 21.0527 50.0293 20.9957 50.1918 20.8791C50.3258 20.7643 50.412 20.6145 50.437 20.4531C50.4754 20.2205 50.4925 19.9857 50.488 19.7509V19.0399H52.1325V19.6892C52.1787 20.3318 51.9789 20.9698 51.5639 21.5049C51.186 21.9338 50.5425 22.1483 49.596 22.1483C48.6495 22.1483 47.9345 21.9191 47.5293 21.4432Z" fill="#8E8F99"/>
<path d="M54.3763 21.4726C53.961 21.023 53.7533 20.3679 53.7533 19.5011V16.4632C53.7533 15.6053 53.961 14.956 54.3763 14.5153C54.7917 14.0746 55.4863 13.8552 56.46 13.8572C57.4269 13.8572 58.1181 14.0766 58.5334 14.5153C58.9488 14.956 59.1599 15.6053 59.1599 16.4632V19.5011C59.1599 20.359 58.9488 21.0172 58.5266 21.4696C58.1044 21.9221 57.4167 22.1483 56.46 22.1483C55.5033 22.1483 54.7951 21.9191 54.3763 21.4726ZM57.226 20.7439C57.3748 20.4623 57.4425 20.1539 57.4235 19.8449V16.1253C57.4426 15.8223 57.376 15.5198 57.2294 15.2439C57.146 15.1376 57.0296 15.0537 56.8936 15.0018C56.7575 14.9498 56.6073 14.9319 56.46 14.9501C56.3123 14.9324 56.1617 14.9505 56.0252 15.0023C55.8887 15.0542 55.7717 15.1379 55.6871 15.2439C55.5374 15.519 55.4695 15.8219 55.4897 16.1253V19.8625C55.469 20.1716 55.5368 20.4804 55.6871 20.7615C55.783 20.8563 55.9013 20.9323 56.034 20.9843C56.1667 21.0364 56.3108 21.0633 56.4566 21.0633C56.6024 21.0633 56.7465 21.0364 56.8792 20.9843C57.0119 20.9323 57.1302 20.8563 57.226 20.7615V20.7439Z" fill="#8E8F99"/>
<path d="M61.1378 13.946H62.9083L64.2395 19.5511L65.6014 13.946H67.3242L67.4978 22.0364H66.2244L66.0883 16.4136L64.774 22.0364H63.7526L62.3907 16.3931L62.2648 22.0364H60.9778L61.1378 13.946Z" fill="#8E8F99"/>
<path d="M69.4829 13.946H72.2406C73.8295 13.946 74.6239 14.7117 74.6239 16.2432C74.6239 17.7101 73.7875 18.4426 72.1147 18.4406H71.175V22.0364H69.4727L69.4829 13.946ZM71.8389 17.4036C72.0071 17.422 72.1779 17.4087 72.3396 17.3646C72.5012 17.3205 72.6499 17.2466 72.7752 17.148C72.9704 16.8748 73.0565 16.5539 73.0203 16.2344C73.0292 15.9876 73.0018 15.7408 72.9386 15.5C72.9143 15.4196 72.8717 15.3441 72.8133 15.278C72.7548 15.2119 72.6817 15.1566 72.5981 15.1152C72.3618 15.0173 72.1006 14.9729 71.8389 14.9859H71.1784V17.4036H71.8389Z" fill="#8E8F99"/>
<path d="M77.0787 13.946H78.907L80.783 22.0364H79.1964L78.8253 20.1709H77.1945L76.8132 22.0364H75.2028L77.0787 13.946ZM78.6415 19.2338L78.0048 15.8378L77.3681 19.2338H78.6415Z" fill="#8E8F99"/>
<path d="M82.2981 13.946H83.4897L85.7709 18.5611V13.946H87.1838V22.0364H86.0501L83.7553 17.2185V22.0364H82.2947L82.2981 13.946Z" fill="#8E8F99"/>
<path d="M90.4932 18.9515L88.5968 13.9572H90.1936L91.3512 17.1653L92.4373 13.9572H94L92.1274 18.9515V22.0363H90.4932V18.9515Z" fill="#8E8F99"/>
<path d="M50.1579 25.5735V25.9966H48.7688V29.2841H48.1866V25.9966H46.7906V25.5735H50.1579Z" fill="#8E8F99"/>
<path d="M54.5123 29.2844H54.0629C54.0173 29.2869 53.9722 29.2743 53.9369 29.2492C53.9029 29.2276 53.8769 29.198 53.862 29.164L53.4603 28.2826H51.5332L51.1314 29.164C51.12 29.2008 51.0991 29.235 51.0702 29.2639C51.0345 29.2885 50.9897 29.301 50.9442 29.2991H50.4948L52.1971 25.5887H52.7895L54.5123 29.2844ZM51.6932 27.9066H53.3003L52.6193 26.3966C52.5691 26.2824 52.527 26.1657 52.4933 26.047C52.4695 26.1175 52.4491 26.1851 52.4286 26.2438L52.3674 26.3995L51.6932 27.9066Z" fill="#8E8F99"/>
<path d="M57.4472 28.9201C57.5538 28.9249 57.6606 28.9249 57.7672 28.9201C57.8593 28.9119 57.9504 28.8971 58.0396 28.876C58.123 28.8584 58.2049 28.8358 58.2848 28.8084C58.3597 28.782 58.4346 28.7497 58.5129 28.7173V27.8829H57.8319C57.8151 27.8837 57.7982 27.8815 57.7824 27.8765C57.7666 27.8714 57.7522 27.8636 57.74 27.8535C57.7288 27.8452 57.72 27.8348 57.7141 27.8231C57.7082 27.8114 57.7054 27.7987 57.706 27.7859V27.5009H59.027V28.923C58.9192 28.9896 58.8053 29.0485 58.6865 29.0993C58.5651 29.151 58.4386 29.1933 58.3086 29.2256C58.1694 29.261 58.027 29.2865 57.883 29.302C57.7179 29.3178 57.552 29.3257 57.3859 29.3255C57.0923 29.3277 56.8009 29.2808 56.5279 29.1875C56.273 29.099 56.0414 28.9671 55.847 28.7996C55.6574 28.6304 55.5082 28.4308 55.4078 28.212C55.3005 27.966 55.2474 27.705 55.2512 27.4422C55.2476 27.1778 55.2995 26.915 55.4044 26.6665C55.5023 26.4466 55.6518 26.2465 55.8436 26.0789C56.0379 25.9119 56.2696 25.781 56.5245 25.694C56.8161 25.5993 57.1255 25.5525 57.437 25.5559C57.5955 25.5557 57.7537 25.5665 57.9102 25.5882C58.0486 25.6076 58.1844 25.6391 58.3154 25.6822C58.4345 25.7208 58.5486 25.7701 58.6559 25.8291C58.7602 25.8871 58.8593 25.9519 58.9521 26.023L58.7887 26.2522C58.7759 26.2731 58.7568 26.2907 58.7334 26.3031C58.7101 26.3155 58.6833 26.3223 58.6559 26.3227C58.6182 26.3217 58.5816 26.3115 58.5503 26.2933C58.4993 26.2698 58.4448 26.2405 58.3835 26.2052C58.3111 26.166 58.2348 26.1326 58.1554 26.1053C58.0539 26.0702 57.9491 26.0427 57.8421 26.023C57.6995 26.0004 57.5547 25.9896 57.4097 25.9907C57.1851 25.9886 56.9621 26.0235 56.7526 26.0936C56.5632 26.1591 56.3924 26.2594 56.2522 26.3874C56.1111 26.5208 56.0033 26.6778 55.9355 26.8487C55.7834 27.2505 55.7834 27.6838 55.9355 28.0856C56.01 28.2601 56.126 28.4193 56.276 28.5528C56.4156 28.6801 56.5851 28.7803 56.7731 28.8466C56.9896 28.9108 57.219 28.9358 57.4472 28.9201V28.9201Z" fill="#8E8F99"/>
<path d="M62.8744 28.8611H64.7334V29.2841H62.3058V25.5735H62.888L62.8744 28.8611Z" fill="#8E8F99"/>
<path d="M66.6672 29.2841H66.085V25.5735H66.6672V29.2841Z" fill="#8E8F99"/>
<path d="M68.8325 25.5912C68.8671 25.6082 68.8973 25.6312 68.9211 25.6588L71.4098 28.4558C71.4065 28.4118 71.4065 28.3676 71.4098 28.3236C71.4098 28.2825 71.4098 28.2413 71.4098 28.2031V25.5589H71.9171V29.2844H71.6243C71.581 29.2874 71.5374 29.2803 71.4984 29.2638C71.463 29.2453 71.4319 29.2214 71.4064 29.1933L68.9211 26.3992C68.9211 26.4432 68.9211 26.4844 68.9211 26.5255C68.9211 26.5666 68.9211 26.6048 68.9211 26.6401V29.2844H68.4342V25.5736H68.7372C68.7701 25.5736 68.8025 25.5796 68.8325 25.5912V25.5912Z" fill="#8E8F99"/>
<path d="M76.2037 25.5735V25.9819H74.1405V27.2071H75.8122V27.6007H74.1405V28.867H76.2037V29.2754H73.5413V25.5735H76.2037Z" fill="#8E8F99"/>
<path d="M15.1952 2.65865L41.047 8.99268V31.1882L15.1952 24.8571V2.65865ZM13.5371 0.766663V25.9353L42.7017 33.0832V7.91742L13.5371 0.766663Z" fill="#8E8F99"/>
<path d="M29.168 44.7666L0 37.6129V12.4468L29.168 19.5977V44.7666Z" fill="#8E8F99"/>
<path d="M14.0205 2.37365L39.5352 8.62825L28.6845 17.994L3.16636 11.7365L14.0205 2.37365ZM13.537 0.766663L0 12.4474L29.168 19.598L42.7016 7.9173L13.537 0.766663Z" fill="#8E8F99"/>
<path d="M30.8091 43.3508L42.7016 33.0862L30.8091 30.169V43.3508Z" fill="#8E8F99"/>
</svg>

<svg xmlns="http://www.w3.org/2000/svg" width="94" height="45" fill="none"><path fill="#8E8F99" d="M47.53 21.443a2.953 2.953 0 0 1-.607-1.992v-2.888c0-.885.201-1.558.603-2.018.402-.46 1.092-.69 2.07-.688.92 0 1.572.196 1.958.588.42.5.625 1.111.578 1.727v.68h-1.644v-.688c.006-.225-.01-.45-.048-.673a.652.652 0 0 0-.234-.4.951.951 0 0 0-.596-.155 1.007 1.007 0 0 0-.627.164.769.769 0 0 0-.272.44 3.342 3.342 0 0 0-.065.715v3.505a1.79 1.79 0 0 0 .211.984.772.772 0 0 0 .328.239c.133.051.28.07.425.055.21.015.42-.042.582-.159a.706.706 0 0 0 .245-.426c.038-.232.056-.467.051-.702v-.711h1.645v.65a2.643 2.643 0 0 1-.57 1.815c-.377.429-1.02.643-1.967.643-.946 0-1.661-.229-2.067-.705ZM54.376 21.473c-.415-.45-.623-1.105-.623-1.972v-3.038c0-.858.208-1.507.623-1.948.416-.44 1.11-.66 2.084-.658.967 0 1.658.22 2.073.658.416.441.627 1.09.627 1.948v3.038c0 .858-.211 1.516-.633 1.969-.423.452-1.11.678-2.067.678-.957 0-1.665-.229-2.084-.675Zm2.85-.729c.149-.282.217-.59.197-.899v-3.72a1.65 1.65 0 0 0-.194-.88.776.776 0 0 0-.335-.243.907.907 0 0 0-.434-.052.92.92 0 0 0-.435.053.789.789 0 0 0-.338.241c-.15.275-.218.578-.197.881v3.738c-.021.309.047.617.197.899.096.094.214.17.347.223a1.161 1.161 0 0 0 .845 0c.133-.053.251-.129.347-.223v-.018ZM61.138 13.946h1.77l1.332 5.605 1.361-5.605h1.723l.174 8.09h-1.274l-.136-5.622-1.314 5.622h-1.021l-1.362-5.643-.126 5.643h-1.287l.16-8.09ZM69.483 13.946h2.758c1.588 0 2.383.766 2.383 2.297 0 1.467-.837 2.2-2.51 2.198h-.939v3.596h-1.702l.01-8.091Zm2.356 3.458c.168.018.339.005.5-.04.162-.043.31-.117.436-.216a1.31 1.31 0 0 0 .245-.913 2.53 2.53 0 0 0-.081-.735.596.596 0 0 0-.126-.222.705.705 0 0 0-.215-.163 1.763 1.763 0 0 0-.76-.129h-.66v2.418h.66ZM77.079 13.946h1.828l1.876 8.09h-1.587l-.37-1.865h-1.631l-.382 1.866h-1.61l1.876-8.091Zm1.563 5.288-.637-3.396-.637 3.396h1.273ZM82.298 13.946h1.192l2.28 4.615v-4.615h1.414v8.09H86.05l-2.295-4.817v4.817h-1.46l.003-8.09ZM90.493 18.952l-1.896-4.995h1.597l1.157 3.208 1.086-3.208H94l-1.873 4.995v3.084h-1.634v-3.084ZM50.158 25.574v.423h-1.39v3.287h-.581v-3.287H46.79v-.423h3.367ZM54.512 29.284h-.45a.2.2 0 0 1-.125-.035.193.193 0 0 1-.075-.085l-.402-.881h-1.927l-.402.881a.243.243 0 0 1-.06.1.208.208 0 0 1-.127.035h-.45l1.703-3.71h.592l1.723 3.695Zm-2.819-1.377H53.3l-.68-1.51a2.703 2.703 0 0 1-.127-.35c-.024.07-.044.138-.064.197l-.062.156-.674 1.507ZM57.447 28.92c.107.005.214.005.32 0 .092-.008.183-.023.273-.044a2.1 2.1 0 0 0 .245-.068c.075-.026.15-.058.228-.09v-.835h-.681a.142.142 0 0 1-.05-.006.128.128 0 0 1-.042-.023.086.086 0 0 1-.026-.03.075.075 0 0 1-.008-.038v-.285h1.321v1.422a2.57 2.57 0 0 1-.718.303c-.14.035-.282.06-.426.076a5.153 5.153 0 0 1-.497.024 2.596 2.596 0 0 1-.858-.139 2.092 2.092 0 0 1-.681-.387 1.792 1.792 0 0 1-.44-.588 1.854 1.854 0 0 1-.156-.77 1.923 1.923 0 0 1 .153-.775c.098-.22.248-.42.44-.588.194-.167.426-.298.68-.385.292-.095.602-.141.913-.138.159 0 .317.01.473.032.139.02.274.051.405.094.12.039.234.088.34.147.105.058.204.123.297.194l-.163.23a.143.143 0 0 1-.056.05.17.17 0 0 1-.077.02.222.222 0 0 1-.106-.03 2.103 2.103 0 0 1-.166-.088 1.51 1.51 0 0 0-.229-.1 2.137 2.137 0 0 0-.313-.082 2.625 2.625 0 0 0-.432-.032 2.018 2.018 0 0 0-.657.103 1.44 1.44 0 0 0-.5.293c-.142.134-.25.29-.318.462a1.733 1.733 0 0 0 0 1.237c.075.174.191.333.341.467.14.127.31.227.497.294.217.064.446.089.674.073ZM62.874 28.861h1.86v.423h-2.428v-3.71h.582l-.014 3.287ZM66.667 29.284h-.582v-3.71h.582v3.71ZM68.832 25.591a.28.28 0 0 1 .09.068l2.488 2.797a.884.884 0 0 1 0-.132v-2.765h.507v3.726h-.293a.276.276 0 0 1-.126-.021.33.33 0 0 1-.092-.07l-2.485-2.795v2.886h-.487v-3.711h.303c.033 0 .066.006.096.017ZM76.204 25.574v.408H74.14v1.225h1.671v.394h-1.671v1.266h2.063v.408H73.54v-3.701h2.663ZM15.195 2.659l25.852 6.334v22.195l-25.852-6.33v-22.2ZM13.537.767v25.168l29.165 7.148V7.917L13.537.767Z"/><path fill="#8E8F99" d="M29.168 44.767 0 37.613V12.447l29.168 7.15v25.17Z"/><path fill="#8E8F99" d="m14.02 2.374 25.515 6.254-10.85 9.366-25.519-6.258L14.02 2.374ZM13.537.767 0 12.447l29.168 7.151 13.534-11.68L13.537.766ZM30.81 43.35l11.892-10.264-11.893-2.917v13.182Z"/></svg>
